react/assets/icons/train.svg

<svg width="48px" height="48px" viewBox="0 0 24 24" fill="none" xmlns="http://www.w3.org/2000/svg" aria-labelledby="trainIconTitle" stroke-linecap="square" stroke-linejoin="miter"> <title id="trainIconTitle">Train</title> <path d="M6 11V6M6 11V16C6 16.5523 6.44772 17 7 17H8M6 11H12M6 6C6.66667 5.33333 8 4 12 4C16 4 17.3333 5.33333 18 6M6 6H12M18 6V11M18 6H12M18 11V16C18 16.5523 17.5523 17 17 17H16M18 11H12M8 17H16M8 17L7 20H17L16 17M12 11V6"/> <circle cx="9" cy="14" r="1"/> <circle cx="15" cy="14" r="1"/> </svg>

<svg width="48" height="48" viewBox="0 0 24 24" fill="none" xmlns="http://www.w3.org/2000/svg" aria-labelledby="trainIconTitle" stroke-linecap="square"><path d="M6 11V6m0 5v5a1 1 0 001 1h1m-2-6h6M6 6c.667-.667 2-2 6-2s5.333 1.333 6 2M6 6h6m6 0v5m0-5h-6m6 5v5a1 1 0 01-1 1h-1m2-6h-6m-4 6h8m-8 0l-1 3h10l-1-3m-4-6V6"/><circle cx="9" cy="14" r="1"/><circle cx="15" cy="14" r="1"/></svg>
